source/img/fb.svg

<svg width="13" height="23" viewBox="0 0 13 23" fill="none" xmlns="http://www.w3.org/2000/svg">
<path d="M12.1909 8.1684H8.07019V6.1587C8.07019 6.1587 7.8396 4.24556 9.17819 4.24556H11.8892V0.128419H7.26869C7.26869 0.128419 3.40262 0.115159 3.40262 3.99571C3.40262 4.82977 3.39783 6.34815 3.39297 8.1684H0.73877V11.4828H3.38332C3.37005 16.7538 3.35075 22.6284 3.35075 22.6284H8.07019V11.4828H11.1867L12.1909 8.1684Z" fill="white"/>
</svg>

<svg width="13" height="23" fill="none" xmlns="http://www.w3.org/2000/svg"><path d="M12.19 8.168H8.07v-2.01s-.23-1.912 1.108-1.912h2.711V.128H7.27S3.403.115 3.403 3.996c0 .834-.005 2.352-.01 4.172H.739v3.315h2.644c-.013 5.27-.032 11.145-.032 11.145h4.72V11.483h3.116l1.004-3.315z" fill="#fff"/></svg>
